dist/svg/static/NFC-inactive-large.svg

<svg xmlns="http://www.w3.org/2000/svg" width="48" height="48" viewBox="0 0 48 48"><g fill="none" stroke="currentColor"><path d="M32.185 12.247l.133.643-.026.022c-.341-2.367-1.086-4.41-2.372-6.522M30.07 24.86a17.892 17.892 0 0 0 2.314-6.732l.031-.03-.218 1.175M38.055 6.519l.253.705-.017.018A28.293 28.293 0 0 0 35.88 1.72M36.09 29.42a28.331 28.331 0 0 0 3.134-18.17l.037-.037.143 1.315M22.355 8.715a18.003 18.003 0 0 1 .05 13.76l-12.75-10.44a20.725 20.725 0 0 0 1 10.5"/><g><path d="M11.717 38.319L18.5 45v-9M10.5 46v-5.922l.035-.033-.035.817M22.5 46v-9.5H29M28 41.5h-5M38.45 44.36a4.16 4.16 0 0 1-2.72 1 4.3 4.3 0 0 1 0-8.6 4.133 4.133 0 0 1 2 .5"/></g><path d="M3.499 44.499l42-42"/></g></svg>

<?xml version="1.0" encoding="UTF-8" standalone="no"?>
<svg width="48px" height="48px" viewBox="0 0 48 48" version="1.1" xmlns="http://www.w3.org/2000/svg" xmlns:xlink="http://www.w3.org/1999/xlink">
    <!-- Generator: sketchtool 46.2 (44496) - http://www.bohemiancoding.com/sketch -->
    <title>nfc-inactive-large</title>
    <desc>Created with sketchtool.</desc>
    <defs></defs>
    <g id="icons-published" stroke="none" stroke-width="1" fill="none" fill-rule="evenodd">
        <g id="briefing" transform="translate(-2304.000000, -1050.000000)"></g>
        <g id="nfc-inactive-large" stroke="#000000">
            <path d="M32.2,12.2 L32.3,12.8 L32.3,12.8 C32,10.4 31.2,8.4 29.9,6.3 M30.1,24.9 C31.3,22.8 32.1,20.5 32.4,18.2 L32.4,18.2 L32.2,19.4 M38.1,6.5 L38.4,7.2 L38.4,7.2 C37.8,5.3 37,3.4 36,1.7 M36.1,29.4 C39.1,23.9 40.2,17.5 39.2,11.2 L39.2,11.2 L39.3,12.5 M22.4,8.7 C24.2,13.1 24.3,18 22.4,22.5 L9.7,12 C9.1,15.5 9.5,19.1 10.7,22.5" id="Shape"></path>
            <path d="M11.7,38.3 L18.5,45 L18.5,36 M10.5,46 L10.5,40.1 L10.5,40.1 L10.5,40.9 M22.5,46 L22.5,36.5 L29,36.5 M28,41.5 L23,41.5 M38.5,44.4 C37.7,45 36.8,45.4 35.8,45.4 C33.4,45.4 31.5,43.5 31.5,41.1 C31.5,38.7 33.4,36.8 35.8,36.8 C36.5,36.8 37.2,37 37.8,37.3" id="Shape"></path>
            <path d="M3.5,44.5 L45.5,2.5" id="Shape"></path>
        </g>
    </g>
</svg>
